icons/svg/old_road_shields/h_mot_shield2.svg

<svg width="25" height="17" viewBox="0 0 25 17" fill="none" xmlns="http://www.w3.org/2000/svg">
<g clip-path="url(#clip0)">
<path fill-rule="evenodd" clip-rule="evenodd" d="M8.027 -0.00100708H16.172C20.57 -0.00100708 24.199 3.60399 24.199 8.03999V8.92699C24.199 13.362 20.57 16.969 16.172 16.969H8.027C3.6 16.969 0 13.362 0 8.92699V8.03999C0 3.60399 3.6 -0.00100708 8.027 -0.00100708Z" fill="#6883E7"/>
<path fill-rule="evenodd" clip-rule="evenodd" d="M8 1.20099H16.2C19.971 1.20099 23.087 4.29199 23.087 8.09699V8.86999C23.087 12.676 19.972 15.766 16.2 15.766H8C4.229 15.766 1.113 12.676 1.113 8.86999V8.09799C1.113 4.29199 4.229 1.20099 8 1.20099Z" fill="white"/>
<path fill-rule="evenodd" clip-rule="evenodd" d="M8.285 2.66101H15.914C18.914 2.66101 21.4 5.15001 21.4 8.18401V8.78501C21.4 11.818 18.914 14.308 15.914 14.308H8.285C5.285 14.308 2.799 11.818 2.799 8.78501V8.18401C2.799 5.14901 5.285 2.66101 8.285 2.66101Z" fill="#6883E7"/>
</g>
<defs>
<clipPath id="clip0">
<path d="M0 0H24.2V16.969H0V0Z" fill="white"/>
</clipPath>
</defs>
</svg>

<?xml version="1.0" encoding="utf-8"?>
<!-- Generator: Adobe Illustrator 16.0.4, SVG Export Plug-In . SVG Version: 6.00 Build 0)  -->
<!DOCTYPE svg PUBLIC "-//W3C//DTD SVG 1.1//EN" "http://www.w3.org/Graphics/SVG/1.1/DTD/svg11.dtd">
<svg version="1.1" id="Слой_1" xmlns="http://www.w3.org/2000/svg" xmlns:xlink="http://www.w3.org/1999/xlink" x="0px" y="0px"
	 width="24.2px" height="16.969px" viewBox="0 0 24.2 16.969" enable-background="new 0 0 24.2 16.969" xml:space="preserve">
<path fill-rule="evenodd" clip-rule="evenodd" fill="#6883E7" d="M8.027-0.001h8.145c4.398,0,8.027,3.605,8.027,8.041v0.887
	c0,4.435-3.629,8.042-8.027,8.042H8.027C3.6,16.969,0,13.362,0,8.927V8.04C0,3.604,3.6-0.001,8.027-0.001L8.027-0.001z"/>
<path fill-rule="evenodd" clip-rule="evenodd" fill="#FFFFFF" d="M8,1.201h8.2c3.771,0,6.887,3.091,6.887,6.896V8.87
	c0,3.806-3.115,6.896-6.887,6.896H8c-3.771,0-6.887-3.09-6.887-6.896V8.098C1.113,4.292,4.229,1.201,8,1.201L8,1.201z"/>
<path fill-rule="evenodd" clip-rule="evenodd" fill="#6883E7" d="M8.285,2.661h7.629c3,0,5.486,2.489,5.486,5.523v0.601
	c0,3.033-2.486,5.523-5.486,5.523H8.285c-3,0-5.486-2.49-5.486-5.523V8.184C2.799,5.149,5.285,2.661,8.285,2.661L8.285,2.661z"/>
</svg>
